icons/Unlock.svg

<svg width="24" height="24" viewBox="0 0 24 24" fill="none" xmlns="http://www.w3.org/2000/svg">
<g id="Unlock">
<path id="Vector" d="M17 9H7C5.34315 9 4 10.3431 4 12V18C4 19.6569 5.34315 21 7 21H17C18.6569 21 20 19.6569 20 18V12C20 10.3431 18.6569 9 17 9Z" stroke="#00153F" stroke-width="1.5" stroke-linecap="round" stroke-linejoin="round"/>
<path id="Vector_2" d="M15 6V4.64C14.9974 4.20585 14.8237 3.79024 14.5168 3.48324C14.2098 3.17625 13.7941 3.00262 13.36 3H10.64C10.2059 3.00262 9.79024 3.17625 9.48324 3.48324C9.17625 3.79024 9.00262 4.20585 9 4.64V9H15" stroke="#00153F" stroke-width="1.5" stroke-linecap="round" stroke-linejoin="round"/>
<path id="Vector_3" d="M12 17C13.1046 17 14 16.1046 14 15C14 13.8954 13.1046 13 12 13C10.8954 13 10 13.8954 10 15C10 16.1046 10.8954 17 12 17Z" stroke="#00153F" stroke-width="1.5" stroke-linecap="round" stroke-linejoin="round"/>
</g>
</svg>

<svg xmlns="http://www.w3.org/2000/svg" fill="none" viewBox="0 0 24 24"><g stroke="currentColor" stroke-linecap="round" stroke-linejoin="round" stroke-width="1.5"><path d="M17 9H7a3 3 0 0 0-3 3v6a3 3 0 0 0 3 3h10a3 3 0 0 0 3-3v-6a3 3 0 0 0-3-3Zm-2-3V4.64A1.65 1.65 0 0 0 13.36 3h-2.72A1.65 1.65 0 0 0 9 4.64V9h6"/><path d="M12 17a2 2 0 1 0 0-4 2 2 0 0 0 0 4Z"/></g></svg>
